X: 111202
T: LOCH LEVEN CASTLE
Q: "Reel."
R:  Reel.
%R: reel
B: James Kerr "Merry Melodies" v.1 p.11 s.2 #2
Z: 2017 John Chambers <jc:trillian.mit.edu>
M: C
L: 1/8
K: Am
(cB) |\
A2(AB) AGEG | AGAB cBcd |\
efga gede | c2G2 G2(cB) |\
A2(AB) AGEG | AGAB cBcd |\
eaga gede | c2A2A2 :|
(eg) |\
a2(ab) ageg | a^gab a2(=ge) |\
dega gede | c2G2 G2(eg) |\
a2(ab) ageg | a^gab a2(=ge) |\
dega gede | c2A2 A2(eg) |
a2(ab) ageg | a^gab a=ge^f |\
g^fga gede | c2G2 G2(cB) |\
A2(AB) AGEG | AGAB cBcd |\
ea^ga =gede | c2A2A2 |]

%%sep 1 1 500
%%sep 1 1 500

